!!!COM: Bach, Johann Sebastian
!!!OTL: Fantasia
!!!OMV: 1
!!!SCT: BWV 562
!!!SCA: Thematisches-systematisches Verzeichnis der musikalischen Werke von Johann Sebastian Bach (Schmieder 1990)
**kern	**kern	**kern	**kern	**kern
*MM60	*MM60	*MM60	*MM60	*MM60
*k[b-e-a-]	*k[b-e-a-]	*k[b-e-a-]	*k[b-e-a-]	*k[b-e-a-]
*M4/4	*M4/4	*M4/4	*M4/4	*M4/4
*tb32	*tb32	*tb32	*tb32	*tb32
=1	=1	=1	=1	=1
4.gg	1r	1r	1r	[1CC
8aa-	.	.	.	.
8gg	.	.	.	.
8ff	.	.	.	.
8ee-	.	.	.	.
8dd	.	.	.	.
=2	=2	=2	=2	=2
8dd	4.cc	1r	1r	1CC_
4ee-	.	.	.	.
8ff	8dd-	.	.	.
[2gg	8cc	.	.	.
.	8b-	.	.	.
.	8a-	.	.	.
.	8g	.	.	.
=3	=3	=3	=3	=3
4gg]	8g	1r	1r	1CC_
.	[8a-	.	.	.
4cc	2a-]	.	.	.
[2ff	.	.	.	.
.	8g	.	.	.
.	8f	.	.	.
=4	=4	=4	=4	=4
4ff]	2cc	4.g	1r	1CC_
4ee-	.	.	.	.
.	.	8a-	.	.
2aa-	2b	8g	.	.
.	.	8f	.	.
.	.	8e-	.	.
.	.	8d	.	.
=5	=5	=5	=5	=5
[1gg	2cc	8d	4.c	1CC_
.	.	[8e-	.	.
.	.	4e-]	.	.
.	.	.	8d-	.
.	2dd-	2e	8c	.
.	.	.	8B-	.
.	.	.	8A-	.
.	.	.	8G	.
=6	=6	=6	=6	=6
4gg]	1cc	2.f	[1A-	1CC_
8ff	.	.	.	.
8ee-	.	.	.	.
8ee-	.	.	.	.
8dd	.	.	.	.
8ee-	.	4e-	.	.
[8ff	.	.	.	.
=7	=7	=7	=7	=7
1ff_	1b	1d	4A-]	1CC_
.	.	.	8A-	.
.	.	.	8G	.
.	.	.	8G	.
.	.	.	8F	.
.	.	.	8G	.
.	.	.	8A-	.
=8	=8	=8	=8	=8
4ff]	2.cc	[1c	[1G	2.CC]
8ee-	.	.	.	.
8dd	.	.	.	.
8dd	.	.	.	.
[4.ee-	.	.	.	.
.	4b-	.	.	8DD
.	.	.	.	8EE-
=9	=9	=9	=9	=9
4ee-]	8b-	2c]	4G]	2.FF
.	[8a-	.	.	.
8dd	2a-]	.	8F	.
8cc	.	.	8E-	.
8cc	.	4f	2F	.
8dd	.	.	.	.
8cc	[4g	4d	.	4GG
8b	.	.	.	.
=10	=10	=10	=10	=10
8b	4g]	[2c	4E-	1AA-
[8cc	.	.	.	.
4cc_	8a-	.	8F	.
.	8g	.	8E-	.
2cc_	2f	4.c]	8D	.
.	.	.	8E-	.
.	.	.	4C	.
.	.	8d	.	.
=11	=11	=11	=11	=11
4cc]	[1g	4e-	[1G	[1GG
8dd	.	8f	.	.
8cc	.	8e-	.	.
8cc	.	8e-	.	.
8b	.	8d	.	.
8cc	.	8e-	.	.
8a	.	8c	.	.
=12	=12	=12	=12	=12
8a	2g]	8c	2G]	2GG]
4.b	.	4.d	.	.
2r	2r	2r	2r	2r
=13	=13	=13	=13	=13
1r	1r	1r	4.d	[1GG
.	.	.	8e-	.
.	.	.	8d	.
.	.	.	8c	.
.	.	.	8B-	.
.	.	.	8A	.
=14	=14	=14	=14	=14
1r	4.dd	1r	4B-	1GG_
.	.	.	4D	.
.	8ee-	.	.	.
.	8dd	.	4E	.
.	8cc	.	.	.
.	8b-	.	4F#	.
.	8a	.	.	.
=15	=15	=15	=15	=15
1r	8a	4.g	2G	1GG_
.	8b-	.	.	.
.	4b	.	.	.
.	.	8a-	.	.
.	4cc	8g	4A	.
.	.	8f	.	.
.	[4dd	8e-	4B	.
.	.	8d	.	.
=16	=16	=16	=16	=16
4.gg	4dd]	2e-	4c	1GG_
.	2cc	.	8E-	.
8aa-	.	.	8F	.
8gg	.	2d	[2G	.
8ff	.	.	.	.
8ee-	4b	.	.	.
8dd	.	.	.	.
=17	=17	=17	=17	=17
8dd	8b	4c	4G]	1GG_
4.ee-	4cc	.	.	.
.	.	4A	4F#	.
.	8dd	.	.	.
4dd	8cc	4B-	4G	.
.	8b-	.	.	.
8cc	8a	8c	8A	.
8b-	8g	8d	8B-	.
=18	=18	=18	=18	=18
8a	4.f#	[2e-	[2c	1GG_
8b-	.	.	.	.
8a	.	.	.	.
8b-	8g	.	.	.
[2cc	[2a	8e-]	4.c]	.
.	.	8d	.	.
.	.	[4e-	.	.
.	.	.	8F#	.
=19	=19	=19	=19	=19
4cc]	4a]	4e-]	[1G	2.GG]
8b-	8g	8d	.	.
8a	8f#	8c	.	.
8a	[2g	[2d	.	.
8b-	.	.	.	.
8cc	.	.	.	8AA
8dd	.	.	.	8BB-
=20	=20	=20	=20	=20
8dd	4g]	4d]	4G]	2C
[8ee-	.	.	.	.
2ee-]	2cc	8c	8A	.
.	.	8B-	8G	.
.	.	8B-	2F#	2D
.	.	8A	.	.
[4dd	8b-	[4B-	.	.
.	8a	.	.	.
=21	=21	=21	=21	=21
4dd]	8a	4B-]	1G	1E-
.	[8g	.	.	.
8ee-	4g_	8c	.	.
8dd	.	8d	.	.
[2cc	8g]	8e-	.	.
.	8b-	8d	.	.
.	8a	8c	.	.
.	8g	16B-	.	.
.	.	16c	.	.
=22	=22	=22	=22	=22
4cc]	2f#	2.d	2A	[1D
8dd	.	.	.	.
8cc	.	.	.	.
4b-	4g	.	2G	.
8a	8f#	4c#	.	.
8b-	8g	.	.	.
=23	=23	=23	=23	=23
4a	4f#	4d	4A	4.D]
4dd	4r	4r	4r	.
.	.	.	.	8E-
[2aa	2r	2r	2r	8D
.	.	.	.	8C
.	.	.	.	8BB-
.	.	.	.	8AA
=24	=24	=24	=24	=24
8aa]	1r	1r	4.d	2BB-
8gg	.	.	.	.
8ff#	.	.	.	.
8gg	.	.	8e-	.
8aa	.	.	8d	2FF#
8ff#	.	.	8c	.
8gg	.	.	8B-	.
8aa	.	.	8A	.
=25	=25	=25	=25	=25
2dd	1r	1r	8c	4.G
.	.	.	8B-	.
.	.	.	8A	.
.	.	.	8G	8A-
2r	.	.	[2d	8G
.	.	.	.	8F
.	.	.	.	8E-
.	.	.	.	8D
=26	=26	=26	=26	=26
4.gg	1r	1r	8d]	2E-
.	.	.	8c	.
.	.	.	8B	.
8aa-	.	.	8c	.
8gg	.	.	8d	2BB
8ff	.	.	8B	.
8ee-	.	.	8c	.
8dd	.	.	8d	.
=27	=27	=27	=27	=27
8ff	1r	1r	2G	4.C
8ee-	.	.	.	.
8dd	.	.	.	.
8cc	.	.	.	8D-
[2gg	.	.	2r	8C
.	.	.	.	8BB-
.	.	.	.	8AA-
.	.	.	.	8GG
=28	=28	=28	=28	=28
8gg]	1r	1r	4.c	2AA-
8ff	.	.	.	.
8ee	.	.	.	.
8ff	.	.	8d-	.
8gg	.	.	8c	2EE
8ee	.	.	8B-	.
8ff	.	.	8A-	.
8gg	.	.	8G	.
=29	=29	=29	=29	=29
2cc	1r	1r	8B-	4.F
.	.	.	8A	.
.	.	.	8G	.
.	.	.	8F	8G
2r	.	.	[2c	8F
.	.	.	.	8E-
.	.	.	.	8D
.	.	.	.	8C
=30	=30	=30	=30	=30
4.ff	1r	1r	8c]	2D
.	.	.	8B-	.
.	.	.	8A	.
8gg	.	.	8B-	.
8ff	.	.	8c	2AA
8ee-	.	.	8A	.
8dd	.	.	8B-	.
8cc	.	.	8c	.
=31	=31	=31	=31	=31
4.dd	4.b-	1r	8F	[1BB-
.	.	.	8G	.
.	.	.	8A-	.
8ee-	8cc	.	8F	.
[2ff	8b-	.	8E-	.
.	8a-	.	4.D	.
.	8g	.	.	.
.	8f	.	.	.
=32	=32	=32	=32	=32
4ff]	2g	4.B-	2E-	1BB-_
[4ee-	.	.	.	.
.	.	8c	.	.
8ee-]	[2f	8B-	4F	.
8dd	.	8A-	.	.
8ee-	.	8G	8E-	.
8ff	.	8F	8D	.
=33	=33	=33	=33	=33
[1b-	4f]	[1G	[1E-	1BB-_
.	8e-	.	.	.
.	8d	.	.	.
.	4e-	.	.	.
.	8f	.	.	.
.	8g	.	.	.
=34	=34	=34	=34	=34
4b-]	1c	4G]	2.E-]	1BB-_
8a-	.	8F	.	.
8g	.	8E-	.	.
[2a-	.	[2F	.	.
.	.	.	8D	.
.	.	.	8C	.
=35	=35	=35	=35	=35
4a-]	2B-	2F]	2D	4BB-]
8g	.	.	.	4C
8f	.	.	.	.
4g	[2e-	2B-	[2E-	4D-
8a-	.	.	.	4GG
8b-	.	.	.	.
=36	=36	=36	=36	=36
4cc	2.e-]	2.A-	2E-]	4AA-
8ee-	.	.	.	4BB-
8dd	.	.	.	.
8dd	.	.	2r	4C
[4.ee-	.	.	.	.
.	4f	4c	.	4AA-
=37	=37	=37	=37	=37
4.ee-]	4.g	4.B-	1r	1BB-
8ff	8a-	8c	.	.
2dd	2f	8B-	.	.
.	.	8A-	.	.
.	.	8G	.	.
.	.	8F	.	.
=38	=38	=38	=38	=38
[1ee-	[1e-	1G	4.E-	[1EE-
.	.	.	8F	.
.	.	.	8E-	.
.	.	.	8D-	.
.	.	.	8C	.
.	.	.	8BB-	.
=39	=39	=39	=39	=39
4.ee-]	4e-]	2A-	2C	1EE-_
.	2a-	.	.	.
8ff	.	.	.	.
8ee-	.	2B-	4BB-	.
8dd-	.	.	.	.
8cc	4g	.	[4E-	.
8b-	.	.	.	.
=40	=40	=40	=40	=40
4cc	4.a-	4A-	4E-]	1EE-_
4ff	.	4F	4D	.
.	8b-	.	.	.
4b-	8a-	4G	[2E-	.
.	8g	.	.	.
4ee-	8f	8A-	.	.
.	8e-	8B-	.	.
=41	=41	=41	=41	=41
4.a-	1f	2c	4E-]	1EE-_
.	.	.	8D	.
8cc	.	.	8C	.
8b-	.	4F	2D	.
8a-	.	.	.	.
8g	.	[4B-	.	.
8a-	.	.	.	.
=42	=42	=42	=42	=42
4g	8e-	4B-]	2E-	2EE-]
.	8d	.	.	.
4r	8e-	4B-	.	.
.	8f	.	.	.
2r	8g	[2e-	4r	2r
.	8a-	.	.	.
.	8f	.	4E-	.
.	8g	.	.	.
=43	=43	=43	=43	=43
1r	8a-	4.e-]	2F	1r
.	8b-	.	.	.
.	8g	.	.	.
.	8a-	8f	.	.
.	[2b-	8e-	2G	.
.	.	8d-	.	.
.	.	8c	.	.
.	.	8B-	.	.
=44	=44	=44	=44	=44
4.cc	4b-]	4c	2A-	1r
.	[4a-	4f	.	.
8dd-	.	.	.	.
8cc	8a-]	4d-	4B-	.
8b-	8g	.	.	.
8a-	8f	4c	4c	.
8g	8e	.	.	.
=45	=45	=45	=45	=45
4a-	8f	2c	2F	1r
.	8e	.	.	.
4cc	8f	.	.	.
.	8g	.	.	.
[2ff	8a-	2r	4r	.
.	8b-	.	.	.
.	8g	.	4F	.
.	8a-	.	.	.
=46	=46	=46	=46	=46
4.ff]	8b-	1r	2G	1r
.	8cc	.	.	.
.	8a	.	.	.
8gg-	8b-	.	.	.
8ff	[2cc	.	2A	.
8ee-	.	.	.	.
8dd-	.	.	.	.
8cc	.	.	.	.
=47	=47	=47	=47	=47
2dd-	4cc]	4.f	2B-	1r
.	2b-	.	.	.
.	.	8g	.	.
[2cc	.	8f	2c	.
.	.	8e	.	.
.	4b-	8d	.	.
.	.	8c	.	.
=48	=48	=48	=48	=48
8cc]	2a-	1f	1d-	1r
8ff	.	.	.	.
8gg	.	.	.	.
[8aa-	.	.	.	.
8aa-]	2b-	.	.	.
8aa-	.	.	.	.
8gg	.	.	.	.
8ff	.	.	.	.
=49	=49	=49	=49	=49
8ee	[1cc	[1g	[1c	4.C
8dd	.	.	.	.
8ee	.	.	.	.
8ff	.	.	.	8D-
8gg	.	.	.	8C
8ee	.	.	.	8BB-
8ff	.	.	.	8AA-
8gg	.	.	.	8GG
=50	=50	=50	=50	=50
4.cc	8cc]	8g]	1c_	4.AA-
.	8b-	8e	.	.
.	4a-	2f	.	.
8dd-	.	.	.	8BB-
8cc	2g	.	.	2C
8b-	.	.	.	.
8a-	.	4e	.	.
8g	.	.	.	.
=51	=51	=51	=51	=51
8a-	4f	4.f	4c]	[1FF
16b-	.	.	.	.
16cc	.	.	.	.
[4dd-	4r	.	4r	.
.	.	8g-	.	.
8dd-]	2r	8f	2r	.
16cc	.	8e-	.	.
16b-	.	.	.	.
[4cc	.	8d-	.	.
.	.	8c	.	.
=52	=52	=52	=52	=52
8cc]	1r	[2d-	1r	1FF_
8f	.	.	.	.
8e	.	.	.	.
8f	.	.	.	.
[2b-	.	8d-]	.	.
.	.	8c	.	.
.	.	8d-	.	.
.	.	8B-	.	.
=53	=53	=53	=53	=53
8b-]	1r	2f	4.c	1FF_
8a-	.	.	.	.
8cc	.	.	.	.
[8ff	.	.	8d-	.
8ff]	.	2g	8c	.
8b-	.	.	8B-	.
8ee	.	.	8A-	.
[8gg	.	.	8G	.
=54	=54	=54	=54	=54
8gg]	4.cc	2c	2A-	1FF]
8ff	.	.	.	.
[4aa-	.	.	.	.
.	8dd-	.	.	.
8aa-]	8cc	2d-	2B-	.
8gg	8b-	.	.	.
8ff	8a-	.	.	.
8ee	8g	.	.	.
=55	=55	=55	=55	=55
[1ff	2a-	1c	2A-	4.F
.	.	.	.	8G
.	2a	.	2r	8F
.	.	.	.	8E-
.	.	.	.	8D
.	.	.	.	8C
=56	=56	=56	=56	=56
1ff_	2b	8f	4.F	4.D
.	.	8g	.	.
.	.	[4a-	.	.
.	.	.	8G	8E-
.	4cc	8a-]	8F	4C
.	.	8a-	8E-	.
.	8dd	8g	8D	8BB
.	8ee-	8f	8C	8AA
=57	=57	=57	=57	=57
4.ff]	2dd	[1g	2D	4BB
.	.	.	.	4GG
8gg	.	.	.	.
8ff	2r	.	4E-	4C
8ee-	.	.	.	.
8dd	.	.	4G	4E-
8cc	.	.	.	.
=58	=58	=58	=58	=58
4.dd	1r	4g]	4A	4F
.	.	4f	4B	4G
8ee-	.	.	.	.
8dd	.	4e-	4c	4A-
8cc	.	.	.	.
8b	.	8d	4A	4F#
8cc	.	8e-	.	.
=59	=59	=59	=59	=59
8cc	1r	8e-	2G	4G
4b	.	4d	.	.
.	.	.	.	4GG
8dd	.	8f	.	.
8dd	.	8f	2r	4AA-
4cc	.	4e-	.	.
.	.	.	.	4AA
8ee-	.	8g	.	.
=60	=60	=60	=60	=60
8ee-	2r	8g	1r	4BB-
4dd	.	4f	.	.
.	.	.	.	4BB
8ff	.	8a-	.	.
8ff	4.cc	8a-	.	4C
4.ee-	.	4.g	.	.
.	.	.	.	4CC
.	8dd-	.	.	.
=61	=61	=61	=61	=61
4ff	8cc	4f	2r	4DD
.	8b-	.	.	.
4gg	8a-	2c	.	4EE
.	8g	.	.	.
4cc	2a-	.	4.F	4FF
4b	.	4d	.	4DD
.	.	.	8G	.
=62	=62	=62	=62	=62
4cc	4.g	8G	8F	4EE-
.	.	8c	8E-	.
4dd	.	8B-	8D	4FF
.	8f	8A-	8C	.
4.ee-	8e-	2G	4BB	4GG
.	8g	.	.	.
.	[4cc	.	4C	4EE-
8ff	.	.	.	.
=63	=63	=63	=63	=63
8ee-	8cc]	4A-	2F	4FF
8dd	8f	.	.	.
8cc	8e-	2G	.	4GG
8b	8d	.	.	.
4cc	8c	.	4E-	[2AA-
.	8e-	.	.	.
8dd	8f	[4F	8A-	.
8ee	8g	.	8B-	.
=64	=64	=64	=64	=64
[1ff	2a-	2F]	4.c	4AA-]
.	.	.	.	4A-
.	.	.	8d-	.
.	2r	2r	8c	4D
.	.	.	8B	.
.	.	.	8c	4F
.	.	.	8d	.
=65	=65	=65	=65	=65
2ff]	4.dd	4r	2.G	4BB
.	.	4B	.	4G
.	8ee-	.	.	.
[2ee-	8cc	[2c	.	4C
.	8b-	.	.	.
.	8a-	.	4r	4E-
.	8g	.	.	.
=66	=66	=66	=66	=66
2ee-]	1f	8c]	1r	4AA
.	.	8e-	.	.
.	.	8d	.	4F
.	.	8c	.	.
[2dd	.	8d	.	4BB
.	.	8c	.	.
.	.	8B	.	4D
.	.	8A	.	.
=67	=67	=67	=67	=67
2dd]	1e-	2G	8r	4GG
.	.	.	8F	.
.	.	.	8E-	4E-
.	.	.	8D	.
[2cc	.	2c	8E-	4AA-
.	.	.	8D	.
.	.	.	8C	4C
.	.	.	8BB-	.
=68	=68	=68	=68	=68
4.cc]	[1d	2d	8AA-	4FF
.	.	.	8C	.
.	.	.	8F	4D
8dd	.	.	8A-	.
8cc	.	2r	[2G	4GG
8b	.	.	.	.
8a	.	.	.	4BB
8g	.	.	.	.
=69	=69	=69	=69	=69
4gg	8d]	1r	2G]	4EE-
.	8B	.	.	.
4cc	8c	.	.	8AA-
.	8e-	.	.	8GG
4ff	8d	.	4F	4AA-
.	8c	.	.	.
8ee-	[4cc	.	4A-	4FF
8dd	.	.	.	.
=70	=70	=70	=70	=70
4.ee-	8cc]	4.g	[1G	1GG
.	8b	.	.	.
.	4cc	.	.	.
8ff	.	8a-	.	.
4.dd	2b	8g	.	.
.	.	8f	.	.
.	.	8e-	.	.
8cc	.	8d	.	.
=71	=71	=71	=71	=71
8cc	4cc	4.e-	4.G]	[1CC
8ee-	.	.	.	.
8dd	4r	.	.	.
8cc	.	8f	8A-	.
2aa-	2r	8e-	8G	.
.	.	8d	8F	.
.	.	8c	8E-	.
.	.	8B	8D	.
=72	=72	=72	=72	=72
[1gg	4.cc	[1c	2E-	1CC_
.	8dd-	.	.	.
.	8cc	.	2E	.
.	8b-	.	.	.
.	8a-	.	.	.
.	8g	.	.	.
=73	=73	=73	=73	=73
4gg]	4.a-	4.c]	2F	1CC_
4ff	.	.	.	.
.	8b-	8d-	.	.
4ee	[2g	8c	4G	.
.	.	8B-	.	.
4gg	.	8A-	8F	.
.	.	8G	8E	.
=74	=74	=74	=74	=74
4.cc	4g]	2A-	4F	1CC_
.	2f	.	8AA-	.
8dd-	.	.	8BB-	.
8cc	.	4G	[2C	.
8b-	.	.	.	.
8a-	4e	[4c	.	.
8g	.	.	.	.
=75	=75	=75	=75	=75
[1a-	4.f	8c]	4C]	1CC_
.	.	8B-	.	.
.	.	[2A-	[4F	.
.	8g	.	.	.
.	8f	.	8F]	.
.	8e-	.	8G	.
.	8d	8A-]	8F	.
.	8c	8G	8E-	.
=76	=76	=76	=76	=76
4a-_	2B	[2F	[2D	1CC_
16a-]	.	.	.	.
16f	.	.	.	.
16e	.	.	.	.
16f	.	.	.	.
16b	8r	8F]	8D]	.
16cc	.	.	.	.
16b	[4.f	8r	8r	.
16a	.	.	.	.
16b	.	[4d	8r	.
16a-	.	.	.	.
16g	.	.	8B	.
16a-	.	.	.	.
=77	=77	=77	=77	=77
16dd	8f]	4d]	4B 4A-	1CC_
16ee-	.	.	.	.
16dd	[4.a-	.	.	.
16cc	.	.	.	.
16dd	.	[4f	8r	.
16b	.	.	.	.
16a	.	.	8d	.
16b	.	.	.	.
16ff	8a-]	4f]	4d 4B	.
16gg	.	.	.	.
16ff	[4.b	.	.	.
16ee-	.	.	.	.
16ff	.	4a-	8r	.
16dd	.	.	.	.
16cc	.	.	8f	.
16dd	.	.	.	.
=78	=78	=78	=78	=78
[4aa-	2b]	2f	2d	1CC_
16aa-]	.	.	.	.
16gg	.	.	.	.
16ff	.	.	.	.
16ee-	.	.	.	.
16dd	2r	2r	2r	.
16ee-	.	.	.	.
16ff	.	.	.	.
16ee-	.	.	.	.
16dd	.	.	.	.
16cc	.	.	.	.
16b	.	.	.	.
16cc	.	.	.	.
=79	=79	=79	=79	=79
16dd	2r	2r	2r	1CC_
16f	.	.	.	.
16g	.	.	.	.
16a-	.	.	.	.
16g	.	.	.	.
16f	.	.	.	.
16e	.	.	.	.
16f	.	.	.	.
4.b	[2f	2d	[2A-	.
8cc	.	.	.	.
=80	=80	=80	=80	=80
[1cc	4.f]	[1c	4.A-]	1CC_
.	8g	.	8B-	.
.	8f	.	8A-	.
.	8e	.	8G	.
.	8d	.	4F	.
.	8e	.	.	.
=81	=81	=81	=81	=81
1cc]	8f	1c]	1G	1CC]
.	[4.e	.	.	.
.	2e]	.	.	.
==	==	==	==	==
*-	*-	*-	*-	*-
!!!ENC: Peter van Kranenburg (peter@musical-style-recognition.net)
!!!END: 2006-12-3
